symbols/web/payments/materialsymbolssharp/payments_wght100grad200_24px.svg

<svg xmlns="http://www.w3.org/2000/svg" height="24" width="24"><path d="M13.4 12.125q-.75 0-1.237-.488-.488-.487-.488-1.237 0-.725.5-1.2t1.225-.475q.725 0 1.2.475t.475 1.2q0 .725-.475 1.225-.475.5-1.2.5ZM5.05 16.1V4.75h16.7V16.1Zm3.15-1.35h10.4q0-.75.525-1.275.525-.525 1.275-.525V7.9q-.75 0-1.275-.525Q18.6 6.85 18.6 6.1H8.2q0 .75-.525 1.275Q7.15 7.9 6.4 7.9v5.05q.75 0 1.275.525Q8.2 14 8.2 14.75Zm-5.95 4.1V7.75H3.6v9.75h15.1v1.35Zm4.15-4.1V6.1Z"/></svg>

<svg xmlns="http://www.w3.org/2000/svg" height="24" width="24"><path d="M13.4 12.125Q12.65 12.125 12.163 11.637Q11.675 11.15 11.675 10.4Q11.675 9.675 12.175 9.2Q12.675 8.725 13.4 8.725Q14.125 8.725 14.6 9.2Q15.075 9.675 15.075 10.4Q15.075 11.125 14.6 11.625Q14.125 12.125 13.4 12.125ZM5.05 16.1V4.75H21.75V16.1ZM8.2 14.75H18.6Q18.6 14 19.125 13.475Q19.65 12.95 20.4 12.95V7.9Q19.65 7.9 19.125 7.375Q18.6 6.85 18.6 6.1H8.2Q8.2 6.85 7.675 7.375Q7.15 7.9 6.4 7.9V12.95Q7.15 12.95 7.675 13.475Q8.2 14 8.2 14.75ZM2.25 18.85V7.75H3.6V17.5H18.7V18.85ZM6.4 14.75V6.1Z"/></svg>
